X: 5760
T: Cailin Mo Rùin-Sa
R: waltz
M: 3/4
K: Amajor
E2-|E2 A2 B2|c6|B4 A2|B2 A2 F2|E6-|E4 c2|
d2 e2 f2|e6|c4 B2|A2 F2 A2|B6-|B4 e2|
e2 f2 e2|c6|B4 A2|B2 A2 F2|E6-|E4 c2|
d2 e2 f2|e6|c4 A2|B2 A2 F2|A6-|A4||

